X:786
T:Perrie Werrie, The
R:Reel
B:The Athole Collection
M:C|
L:1/8
K:G
c|BGGA GAGc|BGGB gdec|BGGA GAGB|A=FFA c3:|
A|Bdde dedc|Bdde gdec|Bdde dedB|A=FFA c3A|
Bdde dedc|Bdde g2 d|gbeg dgBg|A=FFA c3||

